X: 575
T: Keepsake., The
T: cui.mnea.can., an
N:"Gracefully." "Collected from F. O'Neill."
B:O'Neill's 575
Z:Transcribed by J.B. Walsh, walsh@math.ubc.ca
M:6/8
L:1/8
%Q:80
K:G
(B/c/)|(de).d (de).c|.d(ge) (dBG)|(ceg) (ed).B|({c}BA).A A2 (B/c/)|
(de).d (de).c|(dge) (dBG)|gB.e (dBG)|({B}AG).G G2:|
d|g>ag (gfg)|(afd) (d2 (e/f/))|g>ab (bag)|(afd) (d2 e/f/)|
(gag) (fgf)|(efe) (d2 (e/f/))|gBe (dBG)|({B}AG).G G2:|


